X: 1
T: Fairies' Revels, The
M: 6/8
L: 1/8
R: jig
K: Gmaj
|: D |
G2 G GFG | EE/F/G ABc | B2 G GFG | AFD DD/E/F |
GAG GFG | EFG AA/B/c | BAG FEF | G2 G, G,2 :|
|: G |
d^cd d=cB | cde e2 ^c | d2 G GFG | AD/D/D DFA |
[1 d^cd d=cB | cde e2 g | dBG FEF | G2 G, G,2 :|
[2 B/c/dg gfg | egc ed^c | dgB AGA | BG/G/G G2 ||
